documentation/public/assets/images/toggle-group-do-and-dont-05.svg

<svg width="222" height="40" viewBox="0 0 222 40" fill="none" xmlns="http://www.w3.org/2000/svg">
<path d="M4.5 0.5H40V39.5H4.5C2.567 39.5 1 37.933 1 36V4C1 2.067 2.567 0.5 4.5 0.5Z" fill="white"/>
<path fill-rule="evenodd" clip-rule="evenodd" d="M13.999 13.999C13.999 13.7229 14.2229 13.499 14.499 13.499H26.499C26.7752 13.499 26.999 13.7229 26.999 13.999C26.999 14.2752 26.7752 14.499 26.499 14.499H14.499C14.2229 14.499 13.999 14.2752 13.999 13.999ZM13.999 17.999C13.999 17.7229 14.2229 17.499 14.499 17.499H22.499C22.7752 17.499 22.999 17.7229 22.999 17.999C22.999 18.2752 22.7752 18.499 22.499 18.499H14.499C14.2229 18.499 13.999 18.2752 13.999 17.999ZM13.999 21.999C13.999 21.7229 14.2229 21.499 14.499 21.499H26.499C26.7752 21.499 26.999 21.7229 26.999 21.999C26.999 22.2752 26.7752 22.499 26.499 22.499H14.499C14.2229 22.499 13.999 22.2752 13.999 21.999ZM13.999 25.999C13.999 25.7229 14.2229 25.499 14.499 25.499H22.499C22.7752 25.499 22.999 25.7229 22.999 25.999C22.999 26.2752 22.7752 26.499 22.499 26.499H14.499C14.2229 26.499 13.999 26.2752 13.999 25.999Z" fill="#545454"/>
<path d="M4.5 0.5H40V39.5H4.5C2.567 39.5 1 37.933 1 36V4C1 2.067 2.567 0.5 4.5 0.5Z" stroke="#AFAFAF"/>
<path d="M79 0.5H114.5C116.433 0.5 118 2.067 118 4V36C118 37.933 116.433 39.5 114.5 39.5H79V0.5Z" fill="white"/>
<path fill-rule="evenodd" clip-rule="evenodd" d="M91.999 13.999C91.999 13.7229 92.2229 13.499 92.499 13.499H104.499C104.775 13.499 104.999 13.7229 104.999 13.999C104.999 14.2752 104.775 14.499 104.499 14.499H92.499C92.2229 14.499 91.999 14.2752 91.999 13.999ZM91.999 17.999C91.999 17.7229 92.2229 17.499 92.499 17.499H100.499C100.775 17.499 100.999 17.7229 100.999 17.999C100.999 18.2752 100.775 18.499 100.499 18.499H92.499C92.2229 18.499 91.999 18.2752 91.999 17.999ZM91.999 21.999C91.999 21.7229 92.2229 21.499 92.499 21.499H104.499C104.775 21.499 104.999 21.7229 104.999 21.999C104.999 22.2752 104.775 22.499 104.499 22.499H92.499C92.2229 22.499 91.999 22.2752 91.999 21.999ZM91.999 25.999C91.999 25.7229 92.2229 25.499 92.499 25.499H100.499C100.775 25.499 100.999 25.7229 100.999 25.999C100.999 26.2752 100.775 26.499 100.499 26.499H92.499C92.2229 26.499 91.999 26.2752 91.999 25.999Z" fill="#545454"/>
<path d="M79 0.5H114.5C116.433 0.5 118 2.067 118 4V36C118 37.933 116.433 39.5 114.5 39.5H79V0.5Z" stroke="#AFAFAF"/>
<rect x="40.5" y="1" width="38" height="38" fill="white"/>
<path fill-rule="evenodd" clip-rule="evenodd" d="M52.999 13.999C52.999 13.7229 53.2229 13.499 53.499 13.499H65.499C65.7752 13.499 65.999 13.7229 65.999 13.999C65.999 14.2752 65.7752 14.499 65.499 14.499H53.499C53.2229 14.499 52.999 14.2752 52.999 13.999ZM54.999 17.999C54.999 17.7229 55.2229 17.499 55.499 17.499H63.499C63.7752 17.499 63.999 17.7229 63.999 17.999C63.999 18.2752 63.7752 18.499 63.499 18.499H55.499C55.2229 18.499 54.999 18.2752 54.999 17.999ZM52.999 21.999C52.999 21.7229 53.2229 21.499 53.499 21.499H65.499C65.7752 21.499 65.999 21.7229 65.999 21.999C65.999 22.2752 65.7752 22.499 65.499 22.499H53.499C53.2229 22.499 52.999 22.2752 52.999 21.999ZM54.999 25.999C54.999 25.7229 55.2229 25.499 55.499 25.499H63.499C63.7752 25.499 63.999 25.7229 63.999 25.999C63.999 26.2752 63.7752 26.499 63.499 26.499H55.499C55.2229 26.499 54.999 26.2752 54.999 25.999Z" fill="#0F67F5"/>
<rect x="40.5" y="1" width="38" height="38" stroke="#0F67F5" stroke-width="2"/>
<path d="M146.5 0.5H182V39.5H146.5C144.567 39.5 143 37.933 143 36V4C143 2.067 144.567 0.5 146.5 0.5Z" fill="white"/>
<path fill-rule="evenodd" clip-rule="evenodd" d="M160.001 15C160.001 14.7239 160.225 14.5 160.501 14.5H168.501C168.777 14.5 169.001 14.7239 169.001 15C169.001 15.2761 168.777 15.5 168.501 15.5H160.501C160.225 15.5 160.001 15.2761 160.001 15Z" fill="#545454"/>
<path fill-rule="evenodd" clip-rule="evenodd" d="M160.001 20C160.001 19.7239 160.225 19.5 160.501 19.5H168.501C168.777 19.5 169.001 19.7239 169.001 20C169.001 20.2761 168.777 20.5 168.501 20.5H160.501C160.225 20.5 160.001 20.2761 160.001 20Z" fill="#545454"/>
<path fill-rule="evenodd" clip-rule="evenodd" d="M160.001 25C160.001 24.7239 160.225 24.5 160.501 24.5H168.501C168.777 24.5 169.001 24.7239 169.001 25C169.001 25.2761 168.777 25.5 168.501 25.5H160.501C160.225 25.5 160.001 25.2761 160.001 25Z" fill="#545454"/>
<path fill-rule="evenodd" clip-rule="evenodd" d="M156.501 16C157.053 16 157.501 15.5523 157.501 15C157.501 14.4477 157.053 14 156.501 14C155.949 14 155.501 14.4477 155.501 15C155.501 15.5523 155.949 16 156.501 16Z" fill="#545454"/>
<path fill-rule="evenodd" clip-rule="evenodd" d="M156.501 21C157.053 21 157.501 20.5523 157.501 20C157.501 19.4477 157.053 19 156.501 19C155.949 19 155.501 19.4477 155.501 20C155.501 20.5523 155.949 21 156.501 21Z" fill="#545454"/>
<path fill-rule="evenodd" clip-rule="evenodd" d="M156.501 26C157.053 26 157.501 25.5523 157.501 25C157.501 24.4477 157.053 24 156.501 24C155.949 24 155.501 24.4477 155.501 25C155.501 25.5523 155.949 26 156.501 26Z" fill="#545454"/>
<path d="M146.5 0.5H182V39.5H146.5C144.567 39.5 143 37.933 143 36V4C143 2.067 144.567 0.5 146.5 0.5Z" stroke="#AFAFAF"/>
<path d="M182.5 1H217.5C219.157 1 220.5 2.34315 220.5 4V36C220.5 37.6569 219.157 39 217.5 39H182.5V1Z" fill="white"/>
<path fill-rule="evenodd" clip-rule="evenodd" d="M191.999 10.999C191.999 10.7229 192.223 10.499 192.499 10.499H199.499C199.775 10.499 199.999 10.7229 199.999 10.999V17.999C199.999 18.2752 199.775 18.499 199.499 18.499H192.499C192.223 18.499 191.999 18.2752 191.999 17.999V10.999ZM192.999 11.499V17.499H198.999V11.499H192.999ZM202.999 10.999C202.999 10.7229 203.223 10.499 203.499 10.499H210.499C210.775 10.499 210.999 10.7229 210.999 10.999V17.999C210.999 18.2752 210.775 18.499 210.499 18.499H203.499C203.223 18.499 202.999 18.2752 202.999 17.999V10.999ZM203.999 11.499V17.499H209.999V11.499H203.999ZM191.999 21.999C191.999 21.7229 192.223 21.499 192.499 21.499H199.499C199.775 21.499 199.999 21.7229 199.999 21.999V28.999C199.999 29.2752 199.775 29.499 199.499 29.499H192.499C192.223 29.499 191.999 29.2752 191.999 28.999V21.999ZM192.999 22.499V28.499H198.999V22.499H192.999ZM202.999 21.999C202.999 21.7229 203.223 21.499 203.499 21.499H210.499C210.775 21.499 210.999 21.7229 210.999 21.999V28.999C210.999 29.2752 210.775 29.499 210.499 29.499H203.499C203.223 29.499 202.999 29.2752 202.999 28.999V21.999ZM203.999 22.499V28.499H209.999V22.499H203.999Z" fill="#0F67F5"/>
<path d="M182.5 1H217.5C219.157 1 220.5 2.34315 220.5 4V36C220.5 37.6569 219.157 39 217.5 39H182.5V1Z" stroke="#0F67F5" stroke-width="2"/>
</svg>

<svg width="222" height="40" fill="none" xmlns="http://www.w3.org/2000/svg"><path d="M4.5.5H40v39H4.5A3.5 3.5 0 0 1 1 36V4A3.5 3.5 0 0 1 4.5.5Z" fill="#fff"/><path fill-rule="evenodd" clip-rule="evenodd" d="M14 14c0-.28.22-.5.5-.5h12a.5.5 0 1 1 0 1h-12a.5.5 0 0 1-.5-.5Zm0 4c0-.28.22-.5.5-.5h8a.5.5 0 1 1 0 1h-8a.5.5 0 0 1-.5-.5Zm0 4c0-.28.22-.5.5-.5h12a.5.5 0 1 1 0 1h-12a.5.5 0 0 1-.5-.5Zm0 4c0-.28.22-.5.5-.5h8a.5.5 0 1 1 0 1h-8a.5.5 0 0 1-.5-.5Z" fill="#545454"/><path d="M4.5.5H40v39H4.5A3.5 3.5 0 0 1 1 36V4A3.5 3.5 0 0 1 4.5.5Z" stroke="#AFAFAF"/><path d="M79 .5h35.5A3.5 3.5 0 0 1 118 4v32a3.5 3.5 0 0 1-3.5 3.5H79V.5Z" fill="#fff"/><path fill-rule="evenodd" clip-rule="evenodd" d="M92 14c0-.28.22-.5.5-.5h12a.5.5 0 0 1 0 1h-12a.5.5 0 0 1-.5-.5Zm0 4c0-.28.22-.5.5-.5h8a.5.5 0 0 1 0 1h-8a.5.5 0 0 1-.5-.5Zm0 4c0-.28.22-.5.5-.5h12a.5.5 0 0 1 0 1h-12a.5.5 0 0 1-.5-.5Zm0 4c0-.28.22-.5.5-.5h8a.5.5 0 0 1 0 1h-8a.5.5 0 0 1-.5-.5Z" fill="#545454"/><path d="M79 .5h35.5A3.5 3.5 0 0 1 118 4v32a3.5 3.5 0 0 1-3.5 3.5H79V.5Z" stroke="#AFAFAF"/><path fill="#fff" d="M40.5 1h38v38h-38z"/><path fill-rule="evenodd" clip-rule="evenodd" d="M53 14c0-.28.22-.5.5-.5h12a.5.5 0 1 1 0 1h-12a.5.5 0 0 1-.5-.5Zm2 4c0-.28.22-.5.5-.5h8a.5.5 0 1 1 0 1h-8a.5.5 0 0 1-.5-.5Zm-2 4c0-.28.22-.5.5-.5h12a.5.5 0 1 1 0 1h-12a.5.5 0 0 1-.5-.5Zm2 4c0-.28.22-.5.5-.5h8a.5.5 0 1 1 0 1h-8a.5.5 0 0 1-.5-.5Z" fill="#0F67F5"/><path stroke="#0F67F5" stroke-width="2" d="M40.5 1h38v38h-38z"/><path d="M146.5.5H182v39h-35.5A3.5 3.5 0 0 1 143 36V4a3.5 3.5 0 0 1 3.5-3.5Z" fill="#fff"/><path fill-rule="evenodd" clip-rule="evenodd" d="M160 15c0-.28.22-.5.5-.5h8a.5.5 0 0 1 0 1h-8a.5.5 0 0 1-.5-.5Zm0 5c0-.28.22-.5.5-.5h8a.5.5 0 0 1 0 1h-8a.5.5 0 0 1-.5-.5Zm0 5c0-.28.22-.5.5-.5h8a.5.5 0 0 1 0 1h-8a.5.5 0 0 1-.5-.5Zm-3.5-9a1 1 0 1 0 0-2 1 1 0 0 0 0 2Zm0 5a1 1 0 1 0 0-2 1 1 0 0 0 0 2Zm0 5a1 1 0 1 0 0-2 1 1 0 0 0 0 2Z" fill="#545454"/><path d="M146.5.5H182v39h-35.5A3.5 3.5 0 0 1 143 36V4a3.5 3.5 0 0 1 3.5-3.5Z" stroke="#AFAFAF"/><path d="M182.5 1h35a3 3 0 0 1 3 3v32a3 3 0 0 1-3 3h-35V1Z" fill="#fff"/><path fill-rule="evenodd" clip-rule="evenodd" d="M192 11c0-.28.22-.5.5-.5h7c.28 0 .5.22.5.5v7a.5.5 0 0 1-.5.5h-7a.5.5 0 0 1-.5-.5v-7Zm1 .5v6h6v-6h-6Zm10-.5c0-.28.22-.5.5-.5h7c.28 0 .5.22.5.5v7a.5.5 0 0 1-.5.5h-7a.5.5 0 0 1-.5-.5v-7Zm1 .5v6h6v-6h-6ZM192 22c0-.28.22-.5.5-.5h7c.28 0 .5.22.5.5v7a.5.5 0 0 1-.5.5h-7a.5.5 0 0 1-.5-.5v-7Zm1 .5v6h6v-6h-6Zm10-.5c0-.28.22-.5.5-.5h7c.28 0 .5.22.5.5v7a.5.5 0 0 1-.5.5h-7a.5.5 0 0 1-.5-.5v-7Zm1 .5v6h6v-6h-6Z" fill="#0F67F5"/><path d="M182.5 1h35a3 3 0 0 1 3 3v32a3 3 0 0 1-3 3h-35V1Z" stroke="#0F67F5" stroke-width="2"/></svg>
